public/icon/icon-arrow-prev-black.svg

<svg width="20" height="20" viewBox="0 0 20 20" fill="none" xmlns="http://www.w3.org/2000/svg">
<path fill-rule="evenodd" clip-rule="evenodd" d="M14.6907 1.89597C15.1453 2.46589 15.0927 3.33221 14.5732 3.83096L8.1481 9.99916L14.5732 16.1674C15.0927 16.6661 15.1453 17.5324 14.6906 18.1024C14.236 18.6723 13.4463 18.73 12.9268 18.2312L5.42681 11.0311C5.15558 10.7707 5 10.3946 5 9.99916C5 9.60377 5.15558 9.22762 5.42681 8.96723L12.9268 1.7671C13.4463 1.26835 14.236 1.32605 14.6907 1.89597Z" fill="#020F19"/>
</svg>

<svg width="20" height="20" fill="none" xmlns="http://www.w3.org/2000/svg"><path fill-rule="evenodd" clip-rule="evenodd" d="M14.69 1.896c.455.57.403 1.436-.117 1.935L8.148 9.999l6.425 6.168c.52.5.572 1.365.118 1.935-.455.57-1.245.628-1.764.13l-7.5-7.2A1.432 1.432 0 015 9.998c0-.395.156-.771.427-1.032l7.5-7.2c.52-.499 1.309-.44 1.764.129z" fill="#020F19"/></svg>
